src/assets/duotone/ToggleOffCircle.svg

<svg width="24" height="24" viewBox="0 0 24 24"  xmlns="http://www.w3.org/2000/svg">
<path opacity="0.4" d="M13.86 3.86035H10.14C5.65 3.86035 2 7.51035 2 12.0004C2 16.4904 5.65 20.1404 10.14 20.1404H13.86C18.35 20.1404 22 16.4904 22 12.0004C22 7.51035 18.35 3.86035 13.86 3.86035Z" />
<path d="M10.1402 16.4201C12.5813 16.4201 14.5602 14.4412 14.5602 12.0001C14.5602 9.55898 12.5813 7.58008 10.1402 7.58008C7.69912 7.58008 5.72021 9.55898 5.72021 12.0001C5.72021 14.4412 7.69912 16.4201 10.1402 16.4201Z" />
</svg>

<?xml version="1.0" encoding="UTF-8"?>
<svg width="24" height="24" viewBox="0 0 24 24" xmlns="http://www.w3.org/2000/svg">
 <path d="m13.86 3.8604h-3.72c-4.49 0-8.14 3.65-8.14 8.14 0 4.49 3.65 8.14 8.14 8.14h3.72c4.49 0 8.14-3.65 8.14-8.14 0-4.49-3.65-8.14-8.14-8.14z" opacity=".4"/>
 <path d="m10.14 16.42c2.4411 0 4.42-1.9789 4.42-4.42 0-2.4411-1.9789-4.42-4.42-4.42-2.4411 0-4.42 1.9789-4.42 4.42 0 2.4411 1.9789 4.42 4.42 4.42z"/>
</svg>
